icons/folder-css.svg

<?xml version="1.0" encoding="UTF-8"?>
<svg clip-rule="evenodd" fill-rule="evenodd" stroke-linejoin="round" stroke-miterlimit="1.4142" version="1.1" viewBox="0 0 24 24" xml:space="preserve" xmlns="http://www.w3.org/2000/svg"><path d="m10 4h-6c-1.11 0-2 0.89-2 2v12c0 1.097 0.903 2 2 2h16c1.097 0 2-0.903 2-2v-10c0-1.11-0.9-2-2-2h-8l-2-2z" fill="#42a5f5" fill-rule="nonzero"/><g transform="matrix(.67606 0 0 .67606 9.1073 7.3873)" fill="#bbdefb"><path d="m5 3l-0.65 3.34h13.59l-0.44 2.16h-13.58l-0.66 3.33h13.59l-0.76 3.81-5.48 1.81-4.75-1.81 0.33-1.64h-3.34l-0.79 4 7.85 3 9.05-3 1.2-6.03 0.24-1.21 1.54-7.76h-16.94z" fill="#bbdefb" fill-rule="nonzero"/></g></svg>

<?xml version="1.0" encoding="UTF-8" standalone="no"?>
<!DOCTYPE svg PUBLIC "-//W3C//DTD SVG 1.1//EN" "http://www.w3.org/Graphics/SVG/1.1/DTD/svg11.dtd">
<svg width="100%" height="100%" viewBox="0 0 24 24" version="1.1" xmlns="http://www.w3.org/2000/svg" xmlns:xlink="http://www.w3.org/1999/xlink" xml:space="preserve" style="fill-rule:evenodd;clip-rule:evenodd;stroke-linejoin:round;stroke-miterlimit:1.41421;">
    <path id="path3338" d="M10,4L4,4C2.89,4 2,4.89 2,6L2,18C2,19.097 2.903,20 4,20L20,20C21.097,20 22,19.097 22,18L22,8C22,6.89 21.1,6 20,6L12,6L10,4Z" style="fill:rgb(21,101,192);fill-rule:nonzero;"/>
    <g id="path4" transform="matrix(0.676056,0,0,0.676056,9.10732,7.38732)">
        <path d="M5,3L4.35,6.34L17.94,6.34L17.5,8.5L3.92,8.5L3.26,11.83L16.85,11.83L16.09,15.64L10.61,17.45L5.86,15.64L6.19,14L2.85,14L2.06,18L9.91,21L18.96,18L20.16,11.97L20.4,10.76L21.94,3L5,3Z" style="fill:rgb(66,165,245);fill-rule:nonzero;"/>
    </g>
</svg>
